src/icon/hamburger.svg

<svg fill="none" height="25" viewBox="0 0 24 25" width="24" xmlns="http://www.w3.org/2000/svg"><path clip-rule="evenodd" d="m2.61033 5.55c-.33708 0-.61033-.29101-.61033-.65s.27325-.65.61033-.65h18.77937c.337 0 .6103.29101.6103.65s-.2733.65-.6103.65zm-.06103 7c-.30337 0-.5493-.291-.5493-.65s.24593-.65.5493-.65h16.9014c.3034 0 .5493.291.5493.65s-.2459.65-.5493.65zm-.5493 6.35c0 .359.27325.65.61033.65h18.77937c.337 0 .6103-.291.6103-.65s-.2733-.65-.6103-.65h-18.77937c-.33708 0-.61033.291-.61033.65z" fill="#0085fb" fill-rule="evenodd"/></svg>

<svg width="24" height="25" viewBox="0 0 24 25" fill="none" xmlns="http://www.w3.org/2000/svg">
<path fill-rule="evenodd" clip-rule="evenodd" d="M2.61033 5.55C2.27325 5.55 2 5.25899 2 4.9C2 4.54101 2.27325 4.25 2.61033 4.25H21.3897C21.7267 4.25 22 4.54101 22 4.9C22 5.25899 21.7267 5.55 21.3897 5.55H2.61033ZM2.5493 12.55C2.24593 12.55 2 12.259 2 11.9C2 11.541 2.24593 11.25 2.5493 11.25H19.4507C19.7541 11.25 20 11.541 20 11.9C20 12.259 19.7541 12.55 19.4507 12.55H2.5493ZM2 18.9C2 19.259 2.27325 19.55 2.61033 19.55H21.3897C21.7267 19.55 22 19.259 22 18.9C22 18.541 21.7267 18.25 21.3897 18.25H2.61033C2.27325 18.25 2 18.541 2 18.9Z" fill="#0085FB"/>
</svg>
